packages/ckeditor5-core/theme/icons/object-left.svg

<?xml version="1.0" encoding="UTF-8" standalone="no"?><svg width="100%" height="100%" viewBox="0 0 20 20" version="1.1" xmlns="http://www.w3.org/2000/svg" xmlns:xlink="http://www.w3.org/1999/xlink" xml:space="preserve"><path d="M2,15l16,0l0,1l-16,0l0,-1Zm11,-3l5,0l0,1l-5,0l0,-1Zm-2,1l-9,0l0,-7l9,0l0,7Zm-1,-6l-7,0l0,5l7,0l0,-5Zm3,2l5,0l0,1l-5,0l0,-1Zm0,-3l5,0l0,1l-5,0l0,-1Zm-11,-3l16,0l0,1l-16,0l0,-1Z"/></svg>

<svg viewBox="0 0 20 20" xmlns="http://www.w3.org/2000/svg"><path d="M2 15h16v1H2v-1zm11-3h5v1h-5v-1zm-2 1H2V6h9v7zm-1-6H3v5h7V7zm3 2h5v1h-5V9zm0-3h5v1h-5V6zM2 3h16v1H2V3z"/></svg>
